X: 1
T: BARNDANCES: Hills of Tara Set
T: Hills of Tara / If There Weren't Any Men in the World
C: C: Trad.; S: Various / Harry Bradley
C: Set Leaders: Mars
Z: Mars Agliullin ed., Oleg Naumov arr.; Joseph Chordmichael / glauber at The Session
N: https://thesession.org/members/26966/sets/94259
R: Barndance
M: 4/4
L: 1/8
Q: 1/2=86
K: Gmaj
|:Bc|"G"d2 G2 "G/B"GB AB|"C"c2 E2 "A5"E2 AG|"D"FG AB "C"cB cd|"D"e2 d2 "D/F#"B2 Bc|
"G"d2 G2 "G/B"GB AB|"C"c2 E2 "A5"A2 AG|"D"FG AB "D/F#"cA DF|"G"A2 "D"G2 "G"FG:||
|:Bd|"G"g2 g2 "D/F#"f2 f2|"C"ef ec "A5"A2 AG|"D"FG AB "C"cB cd|"D"e2 d2 "D/F#"B2 Bd|
"G"g2 g2 "D/F#"f2 f2|"C"e2 ec "A5"A2 AG|"D"FG AB "D/F#"cA DF|"G"A2 "D"G2 "G"G2:||
T: If There Weren't Any Women / If There Weren't Any Women in the World
K: Gmaj
|:Bc|"G"de dB "G/B"GA BG|"C"EA GE "G/B"D3 c|"G"BG Bd "Em"ge dB|"A"A2 AB "D"A2 Bc|
"G"de dB "G/B"GA BG|"C"EA GE "G/B"D3 c|"A"Bd dB "D"AG "D/F#"AB|1 "G"G2 "C"G"G/B"F "A"G2:|2 "G"G2 "D"GF "G"GABd||
|:"C"e2 ef g2 gf|"G/B"ed dB d2 (3Bcd|"G"ed Bd "Em"ge dB|"A"A2 AB "D"A2 "D/F#"Bc|
"G"de dB "G/B"GA BG|"C"EA GE "G/B"D3 c|"A"Bd dB "D"AG "D/F#"AB|1 "G"G2 "D"GF "G"GABd:|2 "G"G2 "C"G"(G/B)"F "(A)"G2||

